X:1773
T:The Tullamore Piper
M:C|
L:1/8
N:"collected by Delaney"
B:O'Neill's 1773
R:Hornpipe
Z:"Transcribed by Bob Safranek, rjs@gsp.org"
K:D
(Tfe) | (df)(Ad) f2 (Tfe) | d2 (ba) ^gaed | ceAc eAce | dgba ^ga=gd |
         dfAd    f2 (Tfe) | d2 (ba) ^gaed | ceAc eAce | d2 f2 d2   ||
  A2  |  B2 c2  Td2 (cB)  | BA^GA F2 (ed) | ceAc eAce | dfba ^gafd  |
         B2 c2  Td2 (cB)  | BA^GA F2 (ed) | ceAc eAce | d2 f2 d2   |]


